; generated by Slic3r 1.2.9 on 2017-03-08 at 13:17:19

; external perimeters extrusion width = 0.20mm
; perimeters extrusion width = 0.21mm
; infill extrusion width = 0.21mm
; solid infill extrusion width = 0.21mm
; top infill extrusion width = 0.21mm

M104 S29 ; set temperature

M109 S29 ; wait for temperature to be reached
G21 ; set units to millimeters
G90 ; use absolute coordinates
M83 ; use relative distances for extrusion
G1 Z0.200 F1200.000
G1 X-9.104 Y-2.901 F1200.000
G1 X9.111 Y-2.901 E0.04650 F420.000
G1 X9.641 Y0.440 E0.00864
G1 X-9.732 Y0.440 E0.04946
G1 X-9.979 Y3.782 E0.00855
G1 X10.161 Y3.782 E0.05142
G1 X9.636 Y7.123 E0.00864
G1 X-9.570 Y7.123 E0.04903
G1 X-8.874 Y10.465 E0.00871
G1 X8.976 Y10.465 E0.04557
G1 X7.936 Y13.807 E0.00893
G1 X-8.145 Y13.807 E0.04106
G1 X-6.769 Y17.148 E0.00923
G1 X7.135 Y17.148 E0.03550
G1 X1.621 Y20.490 E0.01646
G1 X-1.530 Y20.490 E0.00804
G1 X-10.910 Y-6.243 F1200.000
G1 X10.909 Y-6.243 E0.05571 F420.000
G1 X12.749 Y-9.584 E0.00974
G1 X-12.707 Y-9.584 E0.06499
G1 X-12.658 Y-12.926 E0.00853
G1 X12.695 Y-12.926 E0.06473
G1 X10.932 Y-16.268 E0.00965
G1 X-10.721 Y-16.268 E0.05528
G1 X-4.490 Y-19.609 E0.01805
G1 X4.575 Y-19.609 E0.02314
G1 Z0.400 F1200.000
G1 X9.584 Y-5.005 F1200.000
G1 X9.584 Y-16.707 E0.03178 F420.000
G1 X6.243 Y-18.427 E0.01021
G1 X6.243 Y17.190 E0.09672
G1 X2.901 Y19.514 E0.01105
G1 X2.901 Y-19.892 E0.10701
G1 X-0.440 Y-20.207 E0.00911
G1 X-0.440 Y20.088 E0.10943
G1 X-3.782 Y19.349 E0.00929
G1 X-3.782 Y-19.539 E0.10561
G1 X-7.123 Y-18.039 E0.00995
G1 X-7.123 Y14.614 E0.08867
G1 X9.584 Y4.327 F1200.000
G1 X9.584 Y3.739 E0.00160 F420.000
G1 X-10.465 Y-6.330 F1200.000
G1 X-10.465 Y-16.041 E0.02637 F420.000
G1 Z0.600 F1200.000
G1 X-9.754 Y-16.268 F1200.000
G1 X9.616 Y-16.268 E0.05260 F420.000
G1 X11.987 Y-12.926 E0.01113
G1 X-11.979 Y-12.926 E0.06508
G1 X-12.090 Y-9.584 E0.00908
G1 X12.090 Y-9.584 E0.06566
G1 X10.130 Y-6.243 E0.01052
G1 X-10.130 Y-6.243 E0.05502
G1 X-8.466 Y-2.901 F1200.000
G1 X8.466 Y-2.901 E0.04598 F420.000
G1 X9.055 Y0.440 F1200.000
G1 X-9.131 Y0.440 E0.04938 F420.000
G1 X-9.332 Y3.782 E0.00909
G1 X9.163 Y3.782 E0.05022
G1 X8.799 Y7.123 E0.00913
G1 X-8.841 Y7.123 E0.04790
G1 X-8.050 Y10.465 E0.00933
G1 X8.144 Y10.465 E0.04398
G1 X6.951 Y13.807 F1200.000
G1 X-6.686 Y13.807 E0.03703 F420.000
G1 X-5.220 Y17.148 E0.00991
G1 X5.442 Y17.148 E0.02895
G1 X2.842 Y-19.609 F1200.000
G1 X-2.552 Y-19.609 E0.01465 F420.000
G1 Z0.800 F1200.000
G1 X-3.782 Y-18.971 F1200.000
G1 X-3.782 Y17.796 E0.09984 F420.000
G1 X-0.440 Y19.089 E0.00973
G1 X-0.440 Y-19.678 E0.10528
G1 X2.901 Y-19.314 E0.00913
G1 X2.901 Y18.422 E0.10247
G1 X6.243 Y14.180 E0.01466
G1 X6.243 Y-17.598 E0.08630
G1 X9.584 Y-15.894 E0.01019
G1 X9.584 Y-5.903 E0.02713
G1 X-10.465 Y-7.013 F1200.000
G1 X-10.465 Y-15.254 E0.02238 F420.000
G1 X-7.123 Y-17.311 F1200.000
G1 X-7.123 Y11.592 E0.07849 F420.000
G1 Z1.000 F1200.000
G1 X-3.734 Y17.148 F1200.000
G1 X3.840 Y17.148 E0.02057 F420.000
G1 X6.010 Y13.807 E0.01082
G1 X-5.807 Y13.807 E0.03209
G1 X-7.188 Y10.465 E0.00982
G1 X7.239 Y10.465 E0.03918
G1 X8.103 Y7.123 F1200.000
G1 X-8.112 Y7.123 E0.04404 F420.000
G1 X-8.625 Y3.782 E0.00918
G1 X8.567 Y3.782 E0.04669
G1 X8.475 Y0.440 E0.00908
G1 X-8.492 Y0.440 E0.04608
G1 X-8.020 Y-2.901 F1200.000
G1 X8.019 Y-2.901 E0.04356 F420.000
G1 X9.620 Y-6.243 F1200.000
G1 X-9.621 Y-6.243 E0.05225 F420.000
G1 X-11.721 Y-9.584 E0.01072
G1 X11.721 Y-9.584 E0.06366
G1 X11.713 Y-12.926 E0.00907
G1 X-11.603 Y-12.926 E0.06332
G1 X-8.575 Y-16.268 E0.01225
G1 X8.566 Y-16.268 E0.04655
G1 Z1.200 F1200.000
G1 X9.584 Y-6.453 F1200.000
G1 X9.584 Y-15.380 E0.02424 F420.000
G1 X6.243 Y-16.787 E0.00985
G1 X6.243 Y11.830 E0.07771
G1 X2.901 Y17.329 E0.01748
G1 X2.901 Y-18.715 E0.09788
G1 X-0.440 Y-19.242 E0.00919
G1 X-0.440 Y18.090 E0.10138
G1 X-3.782 Y16.418 E0.01015
G1 X-3.782 Y-18.221 E0.09407
G1 X-7.123 Y-16.649 F1200.000
G1 X-7.123 Y9.317 E0.07051 F420.000
G1 X-10.465 Y-7.518 F1200.000
G1 X-10.465 Y-14.371 E0.01861 F420.000
G1 Z1.400 F1200.000
G1 X7.473 Y-16.268 F1200.000
G1 X-7.473 Y-16.268 E0.04059 F420.000
G1 X-11.354 Y-12.926 E0.01391
G1 X11.319 Y-12.926 E0.06157
G1 X11.407 Y-9.584 E0.00908
G1 X-11.407 Y-9.584 E0.06196
G1 X-9.219 Y-6.243 E0.01085
G1 X9.218 Y-6.243 E0.05007
G1 X7.575 Y-2.901 F1200.000
G1 X-7.576 Y-2.901 E0.04114 F420.000
G1 X-7.858 Y0.440 E0.00911
G1 X7.858 Y0.440 E0.04268
G1 X7.975 Y3.782 E0.00908
G1 X-7.953 Y3.782 E0.04325
G1 X-7.463 Y7.123 E0.00917
G1 X7.551 Y7.123 E0.04077
G1 X6.444 Y10.465 E0.00956
G1 X-6.446 Y10.465 E0.03501
G1 X-5.003 Y13.807 E0.00988
G1 X4.945 Y13.807 E0.02702
G1 X1.796 Y17.148 E0.01247
G1 X-1.607 Y17.148 E0.00924
G1 Z1.600 F1200.000
G1 X-7.123 Y7.361 F1200.000
G1 X-7.123 Y-16.208 E0.06401 F420.000
G1 X-3.782 Y-17.471 F1200.000
G1 X-3.782 Y15.105 E0.08846 F420.000
G1 X-0.440 Y17.056 E0.01051
G1 X-0.440 Y-18.835 E0.09747
G1 X2.901 Y-18.162 E0.00926
G1 X2.901 Y16.123 E0.09311
G1 X6.243 Y10.184 E0.01851
G1 X6.243 Y-16.093 E0.07136
G1 X9.584 Y-14.952 E0.00959
G1 X9.584 Y-6.883 E0.02191
G1 X-10.465 Y-8.047 F1200.000
G1 X-10.465 Y-13.901 E0.01590 F420.000
G1 Z1.800 F1200.000
G1 X-11.034 Y-12.926 F1200.000
G1 X10.996 Y-12.926 E0.05983 F420.000
G1 X11.233 Y-9.584 E0.00910
G1 X-11.234 Y-9.584 E0.06101
G1 X-8.876 Y-6.243 E0.01111
G1 X8.876 Y-6.243 E0.04821
G1 X7.283 Y-2.901 F1200.000
G1 X-7.283 Y-2.901 E0.03955 F420.000
G1 X-7.441 Y0.440 F1200.000
G1 X7.441 Y0.440 E0.04041 F420.000
G1 X7.383 Y3.782 F1200.000
G1 X-7.377 Y3.782 E0.04008 F420.000
G1 X-6.944 Y7.123 E0.00915
G1 X6.971 Y7.123 E0.03779
G1 X5.903 Y10.465 E0.00953
G1 X-5.777 Y10.465 E0.03172
G1 X-4.284 Y13.807 E0.00994
G1 X4.280 Y13.807 E0.02326
G1 X4.190 Y-16.268 F1200.000
G1 X-4.176 Y-16.268 E0.02272 F420.000
G1 Z2.000 F1200.000
G1 X-3.782 Y-16.254 F1200.000
G1 X-3.782 Y-15.435 E0.00222 F420.000
G1 X-3.782 Y-14.024 F1200.000
G1 X-3.782 Y13.743 E0.07540 F420.000
G1 X-0.440 Y15.988 E0.01093
G1 X-0.440 Y-18.472 E0.09358
G1 X2.901 Y-17.540 E0.00942
G1 X2.901 Y14.751 E0.08769
G1 X6.243 Y8.654 E0.01888
G1 X6.243 Y-15.469 E0.06551
G1 X9.584 Y-14.574 E0.00939
G1 X9.584 Y-7.210 E0.02000
G1 X-7.123 Y-2.952 F1200.000
G1 X-7.123 Y-15.780 E0.03484 F420.000
G1 X-10.465 Y-13.468 F1200.000
G1 X-10.465 Y-8.333 E0.01395 F420.000
G1 X-7.123 Y-1.148 F1200.000
G1 X-7.123 Y3.508 E0.01264 F420.000
G1 Z2.200 F1200.000
G1 X-7.102 Y0.440 F1200.000
G1 X7.102 Y0.440 E0.03857 F420.000
G1 X7.046 Y-2.901 F1200.000
G1 X-7.047 Y-2.901 E0.03827 F420.000
G1 X-10.714 Y-12.926 F1200.000
G1 X10.711 Y-12.926 E0.05818 F420.000
G1 X11.062 Y-9.584 E0.00912
G1 X-11.063 Y-9.584 E0.06008
G1 X-8.573 Y-6.243 E0.01132
G1 X8.573 Y-6.243 E0.04656
G1 X6.922 Y3.782 F1200.000
G1 X-6.922 Y3.782 E0.03759 F420.000
G1 X-6.388 Y7.123 E0.00919
G1 X6.391 Y7.123 E0.03470
G1 X5.362 Y10.465 E0.00949
G1 X-5.178 Y10.465 E0.02862
G1 X-3.162 Y13.807 E0.01060
G1 X3.286 Y13.807 E0.01751
G1 X3.502 Y-16.268 F1200.000
G1 X-3.436 Y-16.268 E0.01884 F420.000
G1 Z2.400 F1200.000
G1 X-3.782 Y-13.250 F1200.000
G1 X-3.782 Y12.502 E0.06993 F420.000
G1 X-0.440 Y14.965 E0.01127
G1 X-0.440 Y-18.189 E0.09003
G1 X2.901 Y-16.823 E0.00980
G1 X2.901 Y13.657 E0.08277
G1 X6.243 Y6.438 F1200.000
G1 X6.243 Y-15.069 E0.05841 F420.000
G1 X9.584 Y-14.195 E0.00938
G1 X9.584 Y-7.429 E0.01838
G1 X-7.123 Y-4.312 F1200.000
G1 X-7.123 Y-15.352 E0.02998 F420.000
G1 X-10.465 Y-13.101 F1200.000
G1 X-10.465 Y-8.618 E0.01217 F420.000
G1 Z2.600 F1200.000
G1 X-10.512 Y-12.926 F1200.000
G1 X10.512 Y-12.926 E0.05709 F420.000
G1 X10.890 Y-9.584 E0.00913
G1 X-10.890 Y-9.584 E0.05915
G1 X-8.346 Y-6.243 E0.01141
G1 X8.345 Y-6.243 E0.04533
G1 X6.811 Y-2.901 F1200.000
G1 X-6.812 Y-2.901 E0.03699 F420.000
G1 X-6.746 Y0.440 F1200.000
G1 X6.746 Y0.440 E0.03664 F420.000
G1 X6.525 Y3.782 F1200.000
G1 X-6.525 Y3.782 E0.03544 F420.000
G1 X-5.832 Y7.123 E0.00927
G1 X5.811 Y7.123 E0.03162
G1 X4.812 Y10.465 E0.00947
G1 X-4.676 Y10.465 E0.02577
G1 X-2.354 Y13.807 E0.01105
G1 X2.346 Y13.807 E0.01276
G1 X2.775 Y-16.268 F1200.000
G1 X-2.768 Y-16.268 E0.01505 F420.000
G1 Z2.800 F1200.000
G1 X-3.782 Y-12.912 F1200.000
G1 X-3.782 Y11.522 E0.06635 F420.000
G1 X-0.440 Y14.043 E0.01137
G1 X-0.440 Y-17.916 E0.08679
G1 X2.901 Y-13.497 E0.01505
G1 X2.901 Y12.626 E0.07094
G1 X6.243 Y4.041 F1200.000
G1 X6.243 Y-14.647 E0.05075 F420.000
G1 X9.584 Y-13.862 E0.00932
G1 X9.584 Y-7.639 E0.01690
G1 X-7.123 Y-4.894 F1200.000
G1 X-7.123 Y-15.173 E0.02791 F420.000
G1 X-10.465 Y-12.753 F1200.000
G1 X-10.465 Y-8.906 E0.01045 F420.000
G1 Z3.000 F1200.000
G1 X-6.577 Y-2.901 F1200.000
G1 X6.576 Y-2.901 E0.03572 F420.000
G1 X6.362 Y0.440 F1200.000
G1 X-6.363 Y0.440 E0.03456 F420.000
G1 X-4.174 Y10.465 F1200.000
G1 X4.239 Y10.465 E0.02285 F420.000
G1 X5.324 Y7.123 E0.00954
G1 X-5.312 Y7.123 E0.02888
G1 X-6.130 Y3.782 E0.00934
G1 X6.130 Y3.782 E0.03329
G1 X8.131 Y-6.243 F1200.000
G1 X-8.132 Y-6.243 E0.04416 F420.000
G1 X-4.434 Y-12.926 E0.02074
G1 X-10.292 Y-12.926 E0.01591
G1 X-10.718 Y-9.584 E0.00915
G1 X10.718 Y-9.584 E0.05821
G1 X10.292 Y-12.926 E0.00915
G1 X4.434 Y-12.926 E0.01591
G1 X3.331 Y-12.926 F1200.000
G1 X-3.331 Y-12.926 E0.01809 F420.000
G1 X-2.448 Y-16.268 F1200.000
G1 X2.447 Y-16.268 E0.01329 F420.000
G1 Z3.200 F1200.000
G1 X-3.782 Y-12.668 F1200.000
G1 X-3.782 Y10.542 E0.06303 F420.000
G1 X-0.440 Y13.120 E0.01146
G1 X-0.440 Y-17.653 E0.08357
G1 X2.901 Y-13.112 E0.01531
G1 X2.901 Y11.619 E0.06716
G1 X6.243 Y-0.578 F1200.000
G1 X6.243 Y-14.458 E0.03769 F420.000
G1 X9.584 Y-13.615 E0.00936
G1 X9.584 Y-7.850 E0.01566
G1 X-7.123 Y-14.974 F1200.000
G1 X-7.123 Y-5.279 E0.02633 F420.000
G1 X-10.465 Y-9.197 E0.01398
G1 X-10.465 Y-12.320 E0.00848
G1 Z3.400 F1200.000
G1 X-2.984 Y-12.926 F1200.000
G1 X2.983 Y-12.926 E0.01620 F420.000
G1 X4.752 Y-12.926 F1200.000
G1 X10.072 Y-12.926 E0.01445 F420.000
G1 X10.545 Y-9.584 E0.00917
G1 X-10.546 Y-9.584 E0.05727
G1 X-10.072 Y-12.926 E0.00917
G1 X-4.752 Y-12.926 E0.01445
G1 X-7.917 Y-6.243 E0.02008
G1 X7.917 Y-6.243 E0.04300
G1 X6.341 Y-2.901 F1200.000
G1 X-6.342 Y-2.901 E0.03444 F420.000
G1 X-6.110 Y0.440 F1200.000
G1 X6.110 Y0.440 E0.03319 F420.000
G1 X5.734 Y3.782 F1200.000
G1 X-5.734 Y3.782 E0.03114 F420.000
G1 X-4.875 Y7.123 E0.00937
G1 X4.887 Y7.123 E0.02651
G1 X3.452 Y10.465 E0.00988
G1 X-3.457 Y10.465 E0.01876
G1 X-2.160 Y-16.268 F1200.000
G1 X2.156 Y-16.268 E0.01172 F420.000
G1 Z3.600 F1200.000
G1 X-0.440 Y-17.390 F1200.000
G1 X-0.440 Y12.198 E0.08035 F420.000
G1 X2.901 Y10.611 E0.01005
G1 X2.901 Y-12.913 E0.06388
G1 X-3.782 Y-12.644 F1200.000
G1 X-3.782 Y9.560 E0.06030 F420.000
G1 X-7.123 Y-5.524 F1200.000
G1 X-7.123 Y-14.762 E0.02509 F420.000
G1 X-10.465 Y-11.454 E0.01277
G1 X-10.465 Y-9.971 E0.00402
G1 X6.243 Y-3.343 F1200.000
G1 X6.243 Y-14.300 E0.02976 F420.000
G1 X9.584 Y-13.358 E0.00943
G1 X9.584 Y-8.087 E0.01432
G1 Z3.800 F1200.000
G1 X7.703 Y-6.243 F1200.000
G1 X-7.703 Y-6.243 E0.04184 F420.000
G1 X-4.833 Y-12.926 E0.01975
G1 X-9.852 Y-12.926 E0.01363
G1 X-10.373 Y-9.584 E0.00918
G1 X10.373 Y-9.584 E0.05634
G1 X9.852 Y-12.926 E0.00918
G1 X4.833 Y-12.926 E0.01363
G1 X2.797 Y-12.926 F1200.000
G1 X-2.797 Y-12.926 E0.01519 F420.000
G1 X-1.883 Y-16.268 F1200.000
G1 X1.877 Y-16.268 E0.01021 F420.000
G1 X6.128 Y-2.901 F1200.000
G1 X-6.129 Y-2.901 E0.03329 F420.000
G1 X-5.826 Y0.440 F1200.000
G1 X5.826 Y0.440 E0.03164 F420.000
G1 X5.320 Y3.782 E0.00918
G1 X-5.320 Y3.782 E0.02889
G1 X-4.437 Y7.123 E0.00939
G1 X4.450 Y7.123 E0.02413
G1 X2.612 Y10.465 E0.01036
G1 X-2.601 Y10.465 E0.01416
G1 Z4.000 F1200.000
G1 X-3.782 Y8.301 F1200.000
G1 X-3.782 Y-12.626 E0.05683 F420.000
G1 X-7.123 Y-14.652 F1200.000
G1 X-7.123 Y-5.749 E0.02418 F420.000
G1 X2.901 Y-12.779 F1200.000
G1 X2.901 Y9.552 E0.06064 F420.000
G1 X-0.440 Y11.253 E0.01018
G1 X-0.440 Y-17.216 E0.07731
G1 X9.584 Y-8.375 F1200.000
G1 X9.584 Y-13.101 E0.01283 F420.000
G1 X6.243 Y-14.321 E0.00966
G1 X6.243 Y-4.131 E0.02767
G1 Z4.200 F1200.000
G1 X5.971 Y-2.901 F1200.000
G1 X-5.971 Y-2.901 E0.03243 F420.000
G1 X-5.539 Y0.440 F1200.000
G1 X5.539 Y0.440 E0.03008 F420.000
G1 X5.014 Y3.782 F1200.000
G1 X-5.014 Y3.782 E0.02723 F420.000
G1 X-3.999 Y7.123 F1200.000
G1 X4.013 Y7.123 E0.02176 F420.000
G1 X1.119 Y10.465 E0.01201
G1 X-1.150 Y10.465 E0.00616
G1 X7.489 Y-6.243 F1200.000
G1 X-7.489 Y-6.243 E0.04067 F420.000
G1 X-4.716 Y-12.926 E0.01965
G1 X-9.632 Y-12.926 E0.01335
G1 X-10.201 Y-9.584 E0.00921
G1 X10.201 Y-9.584 E0.05540
G1 X9.632 Y-12.926 E0.00921
G1 X4.716 Y-12.926 E0.01335
G1 X2.828 Y-12.926 F1200.000
G1 X-2.828 Y-12.926 E0.01536 F420.000
G1 X-1.617 Y-16.268 F1200.000
G1 X1.615 Y-16.268 E0.00878 F420.000
G1 Z4.400 F1200.000
G1 X-0.440 Y-17.078 F1200.000
G1 X-0.440 Y10.220 E0.07413 F420.000
G1 X2.901 Y8.451 E0.01027
G1 X2.901 Y-12.825 E0.05778
G1 X-3.782 Y-12.643 F1200.000
G1 X-3.782 Y7.023 E0.05340 F420.000
G1 X-7.123 Y-5.974 F1200.000
G1 X-7.123 Y-14.611 E0.02346 F420.000
G1 X6.243 Y-4.595 F1200.000
G1 X6.243 Y-14.386 E0.02659 F420.000
G1 X9.584 Y-12.844 E0.00999
G1 X9.584 Y-8.659 E0.01137
G1 Z4.600 F1200.000
G1 X7.280 Y-6.243 F1200.000
G1 X-7.281 Y-6.243 E0.03954 F420.000
G1 X-4.588 Y-12.926 E0.01957
G1 X-9.376 Y-12.926 E0.01300
G1 X-10.019 Y-9.584 E0.00924
G1 X10.019 Y-9.584 E0.05441
G1 X9.376 Y-12.926 E0.00924
G1 X4.588 Y-12.926 E0.01300
G1 X2.866 Y-12.926 F1200.000
G1 X-2.866 Y-12.926 E0.01557 F420.000
G1 X-1.492 Y-16.268 F1200.000
G1 X1.493 Y-16.268 E0.00811 F420.000
G1 X5.814 Y-2.901 F1200.000
G1 X-5.814 Y-2.901 E0.03158 F420.000
G1 X-5.252 Y0.440 F1200.000
G1 X5.252 Y0.440 E0.02852 F420.000
G1 X4.645 Y3.782 E0.00922
G1 X-4.646 Y3.782 E0.02523
G1 X-3.425 Y7.123 E0.00966
G1 X3.409 Y7.123 E0.01856
G1 Z4.800 F1200.000
G1 X-3.782 Y5.745 F1200.000
G1 X-3.782 Y-12.660 E0.04998 F420.000
G1 X-7.123 Y-14.543 F1200.000
G1 X-7.123 Y-6.199 E0.02266 F420.000
G1 X2.901 Y-12.948 F1200.000
G1 X2.901 Y7.299 E0.05498 F420.000
G1 X-0.440 Y9.164 E0.01039
G1 X-0.440 Y-16.940 E0.07089
G1 X9.584 Y-8.994 F1200.000
G1 X9.584 Y-12.585 E0.00975 F420.000
G1 X6.243 Y-14.408 E0.01034
G1 X6.243 Y-5.029 E0.02547
G1 Z5.000 F1200.000
G1 X6.975 Y-6.243 F1200.000
G1 X-6.976 Y-6.243 E0.03789 F420.000
G1 X-4.333 Y-12.926 E0.01952
G1 X-9.113 Y-12.926 E0.01298
G1 X-9.793 Y-9.584 E0.00926
G1 X9.793 Y-9.584 E0.05319
G1 X9.112 Y-12.926 E0.00926
G1 X4.333 Y-12.926 E0.01298
G1 X2.991 Y-12.926 F1200.000
G1 X-2.991 Y-12.926 E0.01624 F420.000
G1 X-1.339 Y-16.268 F1200.000
G1 X1.342 Y-16.268 E0.00728 F420.000
G1 X5.656 Y-2.901 F1200.000
G1 X-5.657 Y-2.901 E0.03072 F420.000
G1 X-4.975 Y0.440 E0.00926
G1 X4.975 Y0.440 E0.02702
G1 X4.277 Y3.782 E0.00927
G1 X-4.278 Y3.782 E0.02323
G1 X-2.652 Y7.123 E0.01009
G1 X2.653 Y7.123 E0.01440
G1 Z5.200 F1200.000
G1 X-3.782 Y4.537 F1200.000
G1 X-3.782 Y-12.814 E0.04712 F420.000
G1 X-7.123 Y-14.382 F1200.000
G1 X-7.123 Y-6.587 E0.02117 F420.000
G1 X2.901 Y-13.079 F1200.000
G1 X2.901 Y6.103 E0.05209 F420.000
G1 X-0.440 Y8.135 E0.01062
G1 X-0.440 Y-16.794 E0.06770
G1 X9.584 Y-9.450 F1200.000
G1 X9.584 Y-11.676 E0.00604 F420.000
G1 X6.243 Y-14.489 E0.01186
G1 X6.243 Y-5.383 E0.02473
G1 Z5.400 F1200.000
G1 X6.703 Y-6.243 F1200.000
G1 X-6.703 Y-6.243 E0.03641 F420.000
G1 X-3.760 Y-12.926 E0.01983
G1 X-8.849 Y-12.926 E0.01382
G1 X-9.550 Y-9.584 E0.00927
G1 X9.549 Y-9.584 E0.05186
G1 X8.849 Y-12.926 E0.00927
G1 X3.760 Y-12.926 E0.01382
G1 X3.149 Y-12.926 F1200.000
G1 X-3.149 Y-12.926 E0.01710 F420.000
G1 X-1.151 Y-16.268 F1200.000
G1 X1.159 Y-16.268 E0.00627 F420.000
G1 X5.499 Y-2.901 F1200.000
G1 X-5.499 Y-2.901 E0.02987 F420.000
G1 X-4.802 Y0.440 E0.00927
G1 X4.802 Y0.440 E0.02608
G1 X3.902 Y3.782 E0.00940
G1 X-3.904 Y3.782 E0.02120
